packages/symbols/svgs/duotone/thumbs-up-duotone.svg

<svg width="24" height="24" viewBox="0 0 24 24" fill="none" xmlns="http://www.w3.org/2000/svg">
<g clip-path="url(#clip0_1068_7779)">
<path opacity="0.5" fill-rule="evenodd" clip-rule="evenodd" d="M0 12C0 11.4477 0.447715 11 1 11H6C6.55228 11 7 11.4477 7 12C7 12.5523 6.55228 13 6 13H2V22H6C6.55228 22 7 22.4477 7 23C7 23.5523 6.55228 24 6 24H1C0.447715 24 0 23.5523 0 23V12Z" fill="black"/>
<path fill-rule="evenodd" clip-rule="evenodd" d="M8.03524 0.736883C8.15389 0.301821 8.54905 0 9 0C10.0609 0 11.0783 0.421427 11.8284 1.17157C12.5786 1.92172 13 2.93913 13 4V9H19.5C20.0767 9.00003 20.6466 9.12475 21.1705 9.36561C21.6945 9.60647 22.1602 9.95778 22.5357 10.3955C22.9112 10.8331 23.1876 11.3468 23.346 11.9013C23.5044 12.4558 23.541 13.038 23.4534 13.608L22.3764 20.608C22.3764 20.608 22.3764 20.608 22.3764 20.608C22.2312 21.5517 21.7533 22.4124 21.0291 23.0344C20.3048 23.6565 19.3818 23.999 18.427 24H6C5.44772 24 5 23.5523 5 23V12C5 11.9111 5.01185 11.8226 5.03524 11.7369L8.03524 0.736883ZM9.72653 2.13663L7 12.1339V22H18.425C18.9023 21.9995 19.3638 21.8283 19.726 21.5172C20.0881 21.2062 20.3271 20.7758 20.3996 20.304L21.4766 13.304C21.4766 13.304 21.4766 13.304 21.4766 13.304C21.5204 13.019 21.5021 12.7279 21.4229 12.4507C21.3437 12.1734 21.2055 11.9166 21.0178 11.6977C20.83 11.4789 20.5972 11.3032 20.3352 11.1828C20.0732 11.0624 19.7883 11 19.5 11C19.5 11 19.5 11 19.5 11H12C11.4477 11 11 10.5523 11 10V4C11 3.46957 10.7893 2.96086 10.4142 2.58579C10.2166 2.38819 9.98194 2.23622 9.72653 2.13663Z" fill="black"/>
</g>
<defs>
<clipPath id="clip0_1068_7779">
<rect width="24" height="24" fill="white"/>
</clipPath>
</defs>
</svg>

<svg width="24" height="24" viewBox="0 0 24 24" xmlns="http://www.w3.org/2000/svg"><g clip-path="url(#a)" fill-rule="evenodd" clip-rule="evenodd"><path opacity=".5" d="M0 12a1 1 0 0 1 1-1h5a1 1 0 1 1 0 2H2v9h4a1 1 0 1 1 0 2H1a1 1 0 0 1-1-1V12Z"/><path d="M8.035.737A1 1 0 0 1 9 0a4 4 0 0 1 4 4v5h6.5a4 4 0 0 1 3.953 4.608l-1.077 7A4 4 0 0 1 18.427 24H6a1 1 0 0 1-1-1V12a1 1 0 0 1 .035-.263l3-11Zm1.692 1.4L7 12.134V22h11.425a2 2 0 0 0 1.975-1.696l1.077-7A2 2 0 0 0 19.5 11H12a1 1 0 0 1-1-1V4a2 2 0 0 0-1.273-1.863Z"/></g><defs><clipPath id="a"><path fill="#fff" d="M0 0h24v24H0z"/></clipPath></defs></svg>
